X:681
L:1/4
M:3/4
K:C
"G" G/A/ B c | d z d | f z z | G G G"^A" |:"C" (G2 e) | (c2 G) |"F" B3 | A3 |"G7" f e d | 
 d3/2 ^c/ d |"C" e d c | c3/2 B/ c | (G2 e) | (c2 G) |"F" B3 | A3 |"G7" f e d | d e3/2 d/ | 
"C" (c3 | c) z z ::[K:G]"^B""G" B/c/ d d | (e2 d) | G/A/ B B | (c2 B) |"D7" A D d | d2 c | 
"G" B G e | d3 | B/c/ d d | (e2 d) | G/A/ B B | (c2 B) |"D7" c D d | d A B |"G" (G3 |1 G) z z :|2 
[K:F] G z G"^C" |:"F" A2 C | A/A/ A A |"C7" B B3/2 E/ | G3 | e d c | B A G |"F" F f3/2 d/ | c3 | 
 A2 C | A/A/ A A |"C7" B B3/2 E/ | G3 | e d c | B A E |"F" F A3/2 G/ | F F2 :|

